dist/img/icons/cart.svg

<svg width="14" height="19" viewBox="0 0 14 19" fill="none" xmlns="http://www.w3.org/2000/svg">
<path fill-rule="evenodd" clip-rule="evenodd" d="M3.36761 4.838H2.52189L1.62039 16.504H12.3796L11.4781 4.838H10.6323V6.78894H9.13232V4.838H4.86761V6.78894H3.36761V4.838ZM4.88777 3.338H9.11217C8.9688 2.29963 8.07776 1.5 6.99997 1.5C5.92217 1.5 5.03114 2.29963 4.88777 3.338ZM10.6206 3.338H12.8667L13.8841 16.504L14 18.004H12.4955H1.50447H0L0.115914 16.504L1.13333 3.338H3.37937C3.5292 1.46957 5.09297 0 6.99997 0C8.90697 0 10.4707 1.46957 10.6206 3.338Z" fill="white"/>
</svg>

<svg width="14" height="19" fill="none" xmlns="http://www.w3.org/2000/svg"><path fill-rule="evenodd" clip-rule="evenodd" d="M3.368 4.838h-.846L1.62 16.504h10.76l-.902-11.666h-.846v1.95h-1.5v-1.95H4.868v1.95h-1.5v-1.95zm1.52-1.5h4.224a2.133 2.133 0 00-4.224 0zm5.733 0h2.246l1.017 13.166.116 1.5H0l.116-1.5L1.133 3.338H3.38a3.633 3.633 0 017.242 0z" fill="#fff"/></svg>
